X:9
T:Finnegan's Wake
Z:Jack Campin  *  May 2000  *  http://www.campin.me.uk/
M:C|
L:1/4
K:G
B>B BA|Bd ed|g/g/ g/g/ g>e|dB A2|B>B BA|Bd ed|g/g/ g/g/ g>d|ef g2:|
g>f ga|gf ed|g>f       ga |gf e2|g>f ga|gf ed|e/e/ e/e/ ed |ef g2:|

